svg/math-plus-box.svg

<svg xmlns="http://www.w3.org/2000/svg" viewBox="0 0 448 448" enable-background="new 0 0 448 448"><path d="M0 0v448h448v-448h-448zm352 256h-96v96h-64v-96h-96v-64h96v-96h64v96h96v64z"/></svg>

<?xml version="1.0" encoding="UTF-8" standalone="no"?>
<!-- Created with Inkscape (http://www.inkscape.org/) -->

<svg
   xmlns:dc="http://purl.org/dc/elements/1.1/"
   xmlns:cc="http://creativecommons.org/ns#"
   xmlns:rdf="http://www.w3.org/1999/02/22-rdf-syntax-ns#"
   xmlns:svg="http://www.w3.org/2000/svg"
   xmlns="http://www.w3.org/2000/svg"
   xmlns:sodipodi="http://sodipodi.sourceforge.net/DTD/sodipodi-0.dtd"
   xmlns:inkscape="http://www.inkscape.org/namespaces/inkscape"
   width="448"
   height="448"
   viewBox="0 0 448 448"
   id="svg2"
   version="1.1"
   inkscape:version="0.91 r13725"
   sodipodi:docname="math-plus-box.svg">
  <title
     id="title3339">math-plus-box</title>
  <defs
     id="defs4">
    <pattern
       y="0"
       x="0"
       height="6"
       width="6"
       patternUnits="userSpaceOnUse"
       id="EMFhbasepattern" />
  </defs>
  <sodipodi:namedview
     id="base"
     pagecolor="#ffffff"
     bordercolor="#666666"
     borderopacity="1.0"
     inkscape:pageopacity="0.0"
     inkscape:pageshadow="2"
     inkscape:zoom="0.7"
     inkscape:cx="270.21193"
     inkscape:cy="265.76895"
     inkscape:document-units="px"
     inkscape:current-layer="layer1"
     showgrid="true"
     units="px"
     inkscape:snap-bbox="true"
     inkscape:bbox-nodes="true"
     inkscape:window-width="1264"
     inkscape:window-height="785"
     inkscape:window-x="626"
     inkscape:window-y="380"
     inkscape:window-maximized="0">
    <inkscape:grid
       type="xygrid"
       id="grid3336"
       spacingx="16"
       spacingy="16"
       empspacing="2" />
  </sodipodi:namedview>
  <metadata
     id="metadata7">
    <rdf:RDF>
      <cc:Work
         rdf:about="">
        <dc:format>image/svg+xml</dc:format>
        <dc:type
           rdf:resource="http://purl.org/dc/dcmitype/StillImage" />
        <dc:title>math-plus-box</dc:title>
      </cc:Work>
    </rdf:RDF>
  </metadata>
  <g
     inkscape:label="Layer 1"
     inkscape:groupmode="layer"
     id="layer1"
     transform="translate(0,-604.36209)">
    <path
       style="fill-opacity:1;stroke:none;stroke-width:32;stroke-linecap:round;stroke-miterlimit:4;stroke-dasharray:none;stroke-opacity:1"
       d="M 64 0 C 28.543983 0 0 28.543983 0 64 L 0 160 L 0 288 L 0 384 C 0 419.45602 28.543983 448 64 448 L 160 448 L 288 448 L 384 448 C 419.45602 448 448 419.45602 448 384 L 448 288 L 448 160 L 448 64 C 448 28.543983 419.45602 0 384 0 L 288 0 L 160 0 L 64 0 z M 192 96 L 256 96 L 256 192 L 352 192 L 352 256 L 256 256 L 256 352 L 192 352 L 192 256 L 96 256 L 96 192 L 192 192 L 192 96 z "
       transform="translate(0,604.36209)"
       id="rect3341" />
    <text
       sodipodi:linespacing="125%"
       id="text3434"
       y="853.56891"
       x="473.24872"
       style="font-style:normal;font-variant:normal;font-weight:400;font-size:13.8125px;line-height:125%;font-family:Calibri;text-align:start;letter-spacing:0px;word-spacing:0px;text-anchor:start;fill:#000000;fill-opacity:1;stroke:none"
       xml:space="preserve"><tspan
         id="tspan3436"
         y="0"
         x="0"
         sodipodi:role="line"><tspan
           id="tspan3438"
           style="font-style:normal;font-variant:normal;font-weight:400;font-size:13.8125px;font-family:Calibri;fill:#000000"
           dy="0"
           dx="0" /></tspan></text>
  </g>
</svg>
